casedrop/img/footer/icons/users.svg

<svg width="36" height="27" viewBox="0 0 36 27" fill="none" xmlns="http://www.w3.org/2000/svg">
<path d="M5.86359 8.0625C5.86359 3.88585 9.24944 0.5 13.4261 0.5C17.6028 0.5 20.9886 3.88585 20.9886 8.0625C20.9886 12.2392 17.6028 15.625 13.4261 15.625C9.24943 15.625 5.86359 12.2392 5.86359 8.0625Z" fill="#002AC0" stroke="black"/>
<path d="M25.9678 13.8332C24.73 13.8332 23.5843 13.444 22.6449 12.7812C23.3709 11.3655 23.7803 9.76104 23.7803 8.06234C23.7803 6.36366 23.3709 4.75916 22.6449 3.34354C23.5844 2.6807 24.73 2.2915 25.9678 2.2915C29.1549 2.2915 31.7386 4.87519 31.7386 8.06234C31.7386 11.2495 29.1549 13.8332 25.9678 13.8332Z" fill="#002AC0" stroke="black"/>
<path d="M21.938 19.6306L21.938 19.6306C24.1963 20.6125 25.5657 22.2714 26.294 24.662C26.5546 25.5176 25.9124 26.3748 25.025 26.3748H1.83048C0.941543 26.3748 0.297709 25.5158 0.559274 24.6582L0.0817211 24.5126L0.559275 24.6582C1.28846 22.2674 2.65988 20.609 4.91977 19.6281C7.02771 18.7131 9.83655 18.4165 13.426 18.4165C17.0187 18.4165 19.8294 18.7137 21.938 19.6306Z" fill="#002AC0" stroke="black"/>
<path d="M22.9861 16.6891L22.9861 16.6891C24.0941 16.6203 25.2123 16.6223 26.3151 16.6242C26.4982 16.6245 26.6809 16.6249 26.8631 16.6249H26.8883L26.9136 16.6259L26.9141 16.6259C29.048 16.7101 30.7987 16.9883 32.1701 17.6286C33.6099 18.3008 34.5716 19.3441 35.1387 20.7759C35.1646 20.8414 35.1895 20.907 35.2133 20.9728L35.2134 20.9729C35.538 21.8687 34.8667 22.7915 33.9376 22.7915H30.7474C29.4742 22.7915 28.3246 21.9578 27.5509 20.787L27.5509 20.787C26.4872 19.1775 25.0039 17.9198 23.0507 17.0705L23.0507 17.0705C22.9145 17.0113 22.8625 16.8918 22.8685 16.7971C22.8714 16.7516 22.8866 16.7278 22.8953 16.7185L22.8954 16.7184C22.8997 16.7138 22.9189 16.6933 22.9861 16.6891Z" fill="#002AC0" stroke="black"/>
</svg>

<svg width="36" height="27" fill="none" xmlns="http://www.w3.org/2000/svg"><path d="M5.864 8.063a7.563 7.563 0 1115.125 0 7.563 7.563 0 01-15.125 0zm20.104 5.77a5.743 5.743 0 01-3.323-1.052 10.313 10.313 0 001.135-4.719c0-1.698-.41-3.303-1.135-4.718a5.77 5.77 0 113.323 10.49zm-4.03 5.797h0c2.258.983 3.628 2.641 4.356 5.032a1.326 1.326 0 01-1.269 1.713H1.83a1.329 1.329 0 01-1.27-1.717l-.478-.145.477.145c.73-2.39 2.1-4.049 4.36-5.03 2.109-.915 4.918-1.212 8.507-1.212 3.593 0 6.403.298 8.512 1.215zm1.048-2.94h0c1.108-.07 2.226-.068 3.33-.066h.571l.026.002h0c2.134.084 3.885.362 5.256 1.003 1.44.672 2.402 1.715 2.969 3.147.026.065.05.131.074.197h0a1.357 1.357 0 01-1.275 1.819h-3.19c-1.274 0-2.423-.834-3.197-2.005h0c-1.064-1.61-2.547-2.867-4.5-3.716h0a.284.284 0 01-.182-.274.128.128 0 01.026-.079h0c.005-.004.024-.025.091-.029z" fill="#002AC0" stroke="#000"/></svg>
